usr/share/icons/biglinux-icons-material/64/applets/osd-duplicate.svg

<svg xmlns="http://www.w3.org/2000/svg" viewBox="0 0 64 64"><path d="M22 9v7h2v8H6v26H4v2c0 1 1 2 2 2h34c1 0 2-1 2-2v-2h-2V37h18V16h2V9H22zm2 3h34v2H24v-2zm2 4h30v19H40V24H26v-8zM8 26h30v22H8V26z" style="fill:currentColor;fill-opacity:1;stroke:none;color:#232629"/><path d="M30 18v6h2v-2h18v9H40v2h12V18H30zM12 31v15h22V31H12zm2 4h18v9H14v-9z" style="fill:currentColor;fill-opacity:1;stroke:none;color:#3daee9"/></svg>

<svg xmlns="http://www.w3.org/2000/svg" viewBox="0 0 64 64">
  <defs
     id="defs3051">
    <style
       type="text/css"
       id="current-color-scheme">
      .ColorScheme-Text {
        color:#232629;
      }
      .ColorScheme-Highlight {
        color:#3daee9;
      }
      </style>
  </defs>
  <path
     style="fill:currentColor;fill-opacity:1;stroke:none" 
     d="M 22 9 L 22 16 L 24 16 L 24 24 L 6 24 L 6 50 L 4 50 L 4 52 C 4 53 5 54 6 54 L 40 54 C 41 54 42 53 42 52 L 42 50 L 40 50 L 40 37 C 45 37 53 37 58 37 L 58 16 L 60 16 L 60 9 L 58 9 L 24 9 L 22 9 z M 24 12 L 58 12 L 58 14 L 56 14 L 26 14 L 24 14 L 24 12 z M 26 16 L 56 16 L 56 35 L 40 35 L 40 24 L 26 24 L 26 16 z M 8 26 L 24 26 L 26 26 L 38 26 L 38 48 L 8 48 L 8 26 z "
     class="ColorScheme-Text"
     />
  <path
     style="fill:currentColor;fill-opacity:1;stroke:none" 
     d="M 30 18 L 30 24 L 32 24 L 32 22 L 50 22 L 50 31 L 40 31 L 40 33 L 52 33 L 52 18 L 30 18 z M 12 31 L 12 46 L 34 46 L 34 31 L 12 31 z M 14 35 L 32 35 L 32 44 L 14 44 L 14 35 z "
     class="ColorScheme-Highlight"
     />
</svg>
